X:313
T:Now the Light Has Gone Away
%%stretchlast false
M:4/4
L:1/4
K:Eb clef=C1
"^I"[E,G,B,E]3/2 [E,G,B,E]/ [E,G,B,E] "^I¹"[G,B,E] | "^V7²"[F,A,B,D] "^I"[E,G,B,E] "^V"[B,,B,DF]2 | [B,,B,DF] [B,,B,DF] [B,,B,DF] "^V7³"[A,B,DF] | "^I¹"[G,B,E] "^V²"[F,B,DF] "^I"[E,B,EG]2 | [E,B,EG] [E,B,EG]/ [E,B,EG]/ [E,B,EG] [E,B,EG] | "^i"[E,A,DF] "^♯vi°"[E,G,_DE] "^vi+"[A,,A,Cc]2 | "^I²"[B,,G,EB] [B,,B,EG] [B,,G,EB] "^vi+"[B,,CEA] | [B,,A,C] "^♯iii°"[B,,A,B,D] "^I"[E,,G,B,E]2 |]
